!!!COM: Music21
!!!OTL: Chovendo en Compostela
!!!OMV: pezas_marchas_chovendo-en-compostela_chovendo-en-compostela-partitura.musicxml
**kern
*part2
*staff2
*I"Gaita
*I'Bag
*clefG^2
*k[b-]
*M6/8
*MM135
=1
!
2r
16r
16ccKL
8ffJ
=||
8.ffL
16ccK
8ffJ
8.ffL
16eeK
8ddJ
=
4dd
8cc
8.ccL
16ddK
8eeJ
=
4dd
8cc
8.ccL
16ddK
8eeJ
=
4dd
8cc
8.ccL
16ccK
8ffJ
=
8.ffL
16ccK
8ffJ
8.ffL
16eeK
8ddJ
!!linebreak:original
=
4dd
8cc
8.ccL
16ddK
8eeJ
=
4dd
8cc
8.ccL
16ddK
8eeJ
=
4.ff
4ee
8dd
=
8.ccL
16ddK
8ccJ
8.ccL
16ddK
8eeJ
=
8.ffL
16eeK
8ffJ
4ee
8dd
=
8.ccL
16ddK
8ccJ
8.ccL
16ddK
8eeJ
=
4.ff
4ee
8dd
!!linebreak:original
=
8.ccL
16ddK
8ccJ
8.ccL
16ddK
8eeJ
=
[4.ff
8.ffL]
16ccK
8ffJ
=||
8.ffL
16ccK
8ffJ
8.ffL
16eeK
8ddJ
=
4dd
8cc
8.ccL
16ddK
8eeJ
=
4dd
8cc
8.ccL
16ddK
8eeJ
=
4dd
8cc
8.ccL
16ccK
8ffJ
!!linebreak:original
=
8.ffL
16ccK
8ffJ
8.ffL
16eeK
8ddJ
!!pagebreak:original
=
4dd
8cc
8.ccL
16ddK
8eeJ
=
4dd
8cc
8.ccL
16ddK
8eeJ
=||
4.ff
4ee
8dd
=
8.ccL
16ddK
8ccJ
8.ccL
16ddK
8eeJ
=
8.ffL
16eeK
8ffJ
4ee
8dd
=
8.ccL
16ddK
8ccJ
8.ccL
16ddK
8eeJ
!!linebreak:original
=
4.ff
4ee
8dd
=
8.ccL
16ddK
8ccJ
8.ccL
16ddK
8eeJ
=
4.ff
4ee
8dd
=||
8.ccL
16ddK
8ccJ
8.ccL
16ddK
8eeJ
=
4.ff
4.gg
=
4.aa
4.dd
=
4.cc
4.dd
=
4.cc
4.gg
!!linebreak:original
=
8.ffL
16eeK
8ffJ
4ff
8gg
!!pagebreak:original
=
4.aa
4.dd
=
4.cc
4.dd
=
8.ccL
16ddK
8ccJ
4dd
.
8ee
=
[4.ff
8.ffL]
16ccK
8ffJ
=||
8aa
8r
2r
==
*-
!!!system-decoration: s1,s2,s3
